packages/orbit-components/src/icons/svg/leisure.svg

<!--character:157:550:1582-->
  <svg width="24" height="24" viewBox="0 0 24 24" >
<path   d="M7.60269 13.6991C7.11295 13.8757 6.5712 13.7959 6.14808 13.4849C5.72843 13.1691 5.47721 12.666 5.47054 12.128C5.48314 8.54882 7.51405 5.30914 10.6612 3.84792L10.4019 3.12534C10.3016 2.84634 10.3522 2.53294 10.5347 2.30319C10.7173 2.07344 11.004 1.96225 11.2869 2.01149C11.5698 2.06074 11.8059 2.26294 11.9063 2.54194L12.1761 3.29203C15.5296 2.42941 19.0599 3.67316 21.2152 6.47656C21.5396 6.89875 21.6451 7.45876 21.4978 7.97673C21.3506 8.48687 20.9801 8.89496 20.4983 9.07769L15.0082 11.0487C14.9578 11.067 14.9163 11.105 14.8926 11.1546C14.8693 11.2046 14.8662 11.2622 14.8838 11.3146L16.1473 15.0884C16.1756 15.172 16.2515 15.2281 16.3368 15.2284H20.8243C21.2676 15.2284 21.627 15.6015 21.627 16.0618C21.627 16.5221 21.2676 16.8952 20.8243 16.8952H15.2049C13.9356 16.9192 12.7021 17.3359 11.6623 18.0921C11.3023 18.3591 10.8027 18.2779 10.5384 17.9095C10.4123 17.7308 10.3599 17.5072 10.3929 17.2882C10.4259 17.0693 10.5415 16.873 10.7142 16.7427C11.7565 15.9525 12.9764 15.4527 14.2576 15.2909C14.3178 15.2833 14.3715 15.2478 14.4036 15.1944C14.4357 15.141 14.4429 15.0754 14.423 15.0159L13.3642 11.8572C13.347 11.8049 13.3105 11.7619 13.2628 11.7377C13.215 11.7135 13.1599 11.71 13.1097 11.728L7.60269 13.6991ZM19.81 7.46458C19.8273 7.39791 19.8118 7.32666 19.7686 7.27416C18.4509 5.69445 16.5584 4.75662 14.5466 4.68636C14.4617 4.68372 14.3844 4.73684 14.3536 4.819C14.3228 4.90116 14.3451 4.99457 14.4094 5.05223C15.4712 6.01363 16.4033 7.11927 17.1805 8.33928C17.2305 8.41928 17.3265 8.45365 17.4133 8.42262L19.6819 7.60753C19.7447 7.58474 19.7926 7.53125 19.81 7.46458ZM9.39526 6.67157C9.45934 6.61054 9.55398 6.59929 9.62969 6.64371C9.70539 6.68814 9.74492 6.77812 9.72761 6.86659C9.46134 8.26034 9.37737 9.68501 9.47795 11.1021C9.48444 11.1964 9.42915 11.2836 9.34308 11.3146L7.34981 12.0305C7.28675 12.0524 7.21737 12.0405 7.16437 11.9988C7.11092 11.9575 7.08081 11.8913 7.0841 11.8222C7.16944 9.85588 8.00023 8.00441 9.39526 6.67157ZM18.6199 18.9872C19.0937 19.7548 19.8923 20.241 20.7689 20.2956V20.289C21.2122 20.2572 21.5964 20.6046 21.627 21.0649C21.6576 21.5252 21.323 21.9241 20.8796 21.9558C19.7747 22.001 18.7043 21.5511 17.9407 20.7207C17.1681 21.519 16.1231 21.9683 15.0331 21.9708C13.9894 21.9777 12.9922 21.5231 12.2908 20.7207C11.4495 21.506 10.3635 21.9499 9.2323 21.9708C8.12499 21.9527 7.06924 21.4819 6.29417 20.6607C5.48254 21.4652 4.41971 21.9404 3.29904 22C2.39432 22 2.35338 21.2758 2.36061 21.1191C2.36897 20.8957 2.46425 20.6855 2.62464 20.5364C2.78503 20.3873 2.99681 20.3122 3.21154 20.3281C4.53771 20.3957 5.69691 18.9263 5.70815 18.9113C5.87736 18.71 6.12652 18.601 6.38345 18.6158C6.64039 18.6307 6.87638 18.7677 7.02308 18.9872C7.52106 19.7634 8.3418 20.2512 9.23872 20.304C10.2174 20.2366 11.1223 19.7403 11.7273 18.9388C11.9035 18.7168 12.174 18.5995 12.45 18.6255C12.7259 18.6515 12.9717 18.8175 13.1065 19.0688C13.4874 19.8108 14.2234 20.2827 15.0331 20.304C15.9317 20.279 16.7598 19.7925 17.2431 19.0055C17.3975 18.7703 17.6527 18.628 17.9269 18.6244C18.201 18.6207 18.4597 18.7561 18.6199 18.9872Z" />
</svg>

<!--character:157:550:1582-->
<svg width="24" height="24" viewBox="0 0 24 24" xmlns="http://www.w3.org/2000/svg"><path d="M20.7689 20.2956v-.0066c.4433-.0318.8275.3156.8581.7759.0306.4603-.304.8592-.7473.891-1.105.0451-2.1754-.4048-2.939-1.2352-.7726.7983-1.8176 1.2476-2.9076 1.2501-1.0437.0069-2.0408-.4477-2.7422-1.2501-.8414.7853-1.9274 1.2292-3.0586 1.2501-1.1073-.0181-2.163-.4889-2.9381-1.3101-.8116.8045-1.8745 1.2797-2.9951 1.3393-.9048 0-.9457-.7242-.9385-.881.0084-.2233.1037-.4335.264-.5826.1604-.149.3722-.2242.587-.2083 1.3261.0675 2.4853-1.4018 2.4966-1.4168.1692-.2013.4183-.3103.6753-.2955.2569.0149.4929.1519.6396.3714.498.7762 1.3187 1.264 2.2156 1.3168.9787-.0674 1.8836-.5637 2.4886-1.3652.1762-.222.4467-.3393.7227-.3133.276.026.5217.192.6565.4433.381.742 1.117 1.2139 1.9266 1.2352.8987-.025 1.7267-.5115 2.21-1.2985.1544-.2352.4096-.3775.6838-.3811.2742-.0037.5328.1317.693.3628.4738.7676 1.2724 1.2538 2.149 1.3084zM6.148 13.485c-.4197-.3158-.6709-.8189-.6776-1.3569.0126-3.5792 2.0436-6.8189 5.1907-8.28l-.2593-.7227c-.1003-.279-.0497-.5924.1328-.8221.1826-.2298.4693-.341.7522-.2917.283.0492.519.2514.6194.5304l.2698.7501c3.3535-.8626 6.8838.3812 9.0391 3.1846.3244.4222.43.9822.2826 1.5001-.1472.5102-.5177.9183-.9995 1.101l-5.49 1.971a.2066.2066 0 0 0-.1157.1059.2165.2165 0 0 0-.0088.16l1.2635 3.7738c.0283.0836.1042.1397.1895.14h4.4875c.4433 0 .8027.3731.8027.8334 0 .4603-.3594.8334-.8027.8334h-5.6194c-1.2693.024-2.5028.4407-3.5426 1.1969-.36.267-.8596.1858-1.1239-.1826a.8579.8579 0 0 1-.1455-.6213c.033-.219.1486-.4152.3213-.5455 1.0423-.7902 2.2622-1.29 3.5434-1.4518a.2001.2001 0 0 0 .146-.0965.2153.2153 0 0 0 .0194-.1785l-1.0588-3.1587a.2052.2052 0 0 0-.1014-.1195.1932.1932 0 0 0-.1531-.0097l-5.507 1.971c-.4897.1767-1.0315.0969-1.4546-.2141zM19.7686 7.274c-1.3177-1.5797-3.2102-2.5175-5.222-2.5877-.0849-.0027-.1622.0504-.193.1326a.2137.2137 0 0 0 .0558.2332c1.0618.9614 1.9939 2.067 2.7711 3.287.05.08.146.1144.2328.0834l2.2686-.815a.2063.2063 0 0 0 .128-.143.2152.2152 0 0 0-.0413-.1905zM9.3953 6.6716c-1.395 1.3328-2.2258 3.1843-2.3112 5.1506a.2106.2106 0 0 0 .0803.1767.1955.1955 0 0 0 .1854.0316l1.9933-.7159c.086-.031.1414-.1182.1349-.2125a16.3934 16.3934 0 0 1 .2496-4.2355c.0173-.0885-.0222-.1785-.0979-.2229a.195.195 0 0 0-.2344.0279z"/></svg>
